shared/img/client-icons/player_whisper.svg

<svg style="clip-rule:evenodd;fill-rule:evenodd;stroke-linejoin:round;stroke-miterlimit:1.4142" version="1.1" viewBox="0 0 16 16" xmlns="http://www.w3.org/2000/svg">
 <g transform="matrix(.125 0 0 .125 -432 -100)">
  <g id="player_whisper" transform="matrix(1 0 0 1.094 3456 362.39)">
   <rect y="400" width="128" height="117" style="fill:none"/>
   <g transform="matrix(1 0 0 .91406 8.08 407.39)">
    <circle cx="55.92" cy="55.92" r="55" style="fill:#c90b0e"/>
   </g>
   <g transform="matrix(1 0 0 .91406 8.08 407.39)">
    <path d="m103 46.23c-.012 5.198-1.271 10.319-3.67 14.93-8-11.89-23.49-20-41.27-20-19.52 0-36.26 9.7-43.41 23.54-3.743-5.435-5.767-11.871-5.81-18.47 0-21.23 21.07-38.47 47.08-38.47s47.08 17.24 47.08 38.47z" style="fill-rule:nonzero;fill:url(#player_whisper_linear1)"/>
   </g>
   <g transform="matrix(1 0 0 .91406 8.08 407.39)">
    <path d="m15.84 74.38c.028-4.135 1.116-8.195 3.16-11.79 6.79 9.41 20 15.75 35.1 15.75 16.62 0 30.87-7.66 37-18.59 3.152 4.228 4.869 9.356 4.9 14.63 0 16.77-17.94 30.38-40.08 30.38s-40.08-13.61-40.08-30.38z" style="fill-rule:nonzero;fill:url(#player_whisper_linear2)"/>
   </g>
  </g>
 </g>
 <defs>
  <linearGradient id="player_whisper_linear1" x2="1" gradientTransform="matrix(0,45.89,-45.89,0,55.92,6.93)" gradientUnits="userSpaceOnUse">
   <stop style="stop-color:#fff;stop-opacity:.8" offset="0"/>
   <stop style="stop-color:#c90b0e;stop-opacity:.8" offset="1"/>
  </linearGradient>
  <linearGradient id="player_whisper_linear2" x2="1" gradientTransform="matrix(0,-36.23,36.23,0,55.92,105.41)" gradientUnits="userSpaceOnUse">
   <stop style="stop-color:#fff;stop-opacity:.3" offset="0"/>
   <stop style="stop-color:#fffefe;stop-opacity:.3" offset="0"/>
   <stop style="stop-color:#efb5b6;stop-opacity:.3" offset=".22"/>
   <stop style="stop-color:#e1797a;stop-opacity:.3" offset=".43"/>
   <stop style="stop-color:#d7494c;stop-opacity:.3" offset=".61"/>
   <stop style="stop-color:#cf272a;stop-opacity:.3" offset=".78"/>
   <stop style="stop-color:#cb1315;stop-opacity:.3" offset=".91"/>
   <stop style="stop-color:#c90b0e;stop-opacity:.3" offset="1"/>
  </linearGradient>
 </defs>
</svg>

<?xml version="1.0" encoding="UTF-8" standalone="no"?>
<svg width="100%" height="100%" viewBox="0 0 128 128" version="1.1" xmlns="http://www.w3.org/2000/svg" xmlns:xlink="http://www.w3.org/1999/xlink" xml:space="preserve" style="fill-rule:evenodd;clip-rule:evenodd;stroke-linejoin:round;stroke-miterlimit:1.41421;">
    <g transform="matrix(1,0,0,1,-3456,-800)">
        <g id="player_whisper" transform="matrix(1,0,0,1.09402,3456,362.393)">
            <rect x="0" y="400" width="128" height="117" style="fill:none;"/>
            <g transform="matrix(1,0,0,0.914062,8.08,407.386)">
                <circle cx="55.92" cy="55.92" r="55" style="fill:rgb(201,11,14);"/>
            </g>
            <g transform="matrix(1,0,0,0.914062,8.08,407.386)">
                <path d="M103,46.23C102.988,51.428 101.729,56.549 99.33,61.16C91.33,49.27 75.84,41.16 58.06,41.16C38.54,41.16 21.8,50.86 14.65,64.7C10.907,59.265 8.883,52.829 8.84,46.23C8.84,25 29.91,7.76 55.92,7.76C81.93,7.76 103,25 103,46.23Z" style="fill:url(#_Linear1);fill-rule:nonzero;"/>
            </g>
            <g transform="matrix(1,0,0,0.914062,8.08,407.386)">
                <path d="M15.84,74.38C15.868,70.245 16.956,66.185 19,62.59C25.79,72 39,78.34 54.1,78.34C70.72,78.34 84.97,70.68 91.1,59.75C94.252,63.978 95.969,69.106 96,74.38C96,91.15 78.06,104.76 55.92,104.76C33.78,104.76 15.84,91.15 15.84,74.38Z" style="fill:url(#_Linear2);fill-rule:nonzero;"/>
            </g>
        </g>
    </g>
    <defs>
        <linearGradient id="_Linear1" x1="0" y1="0" x2="1" y2="0" gradientUnits="userSpaceOnUse" gradientTransform="matrix(2.80995e-15,45.89,-45.89,2.80995e-15,55.92,6.93)"><stop offset="0" style="stop-color:white;stop-opacity:0.8"/><stop offset="1" style="stop-color:rgb(201,11,14);stop-opacity:0.8"/></linearGradient>
        <linearGradient id="_Linear2" x1="0" y1="0" x2="1" y2="0" gradientUnits="userSpaceOnUse" gradientTransform="matrix(3.43972e-14,-36.23,36.23,3.43972e-14,55.92,105.41)"><stop offset="0" style="stop-color:white;stop-opacity:0.3"/><stop offset="0" style="stop-color:rgb(255,254,254);stop-opacity:0.3"/><stop offset="0.22" style="stop-color:rgb(239,181,182);stop-opacity:0.3"/><stop offset="0.43" style="stop-color:rgb(225,121,122);stop-opacity:0.3"/><stop offset="0.61" style="stop-color:rgb(215,73,76);stop-opacity:0.3"/><stop offset="0.78" style="stop-color:rgb(207,39,42);stop-opacity:0.3"/><stop offset="0.91" style="stop-color:rgb(203,19,21);stop-opacity:0.3"/><stop offset="1" style="stop-color:rgb(201,11,14);stop-opacity:0.3"/></linearGradient>
    </defs>
</svg>
